X:543
T: Liuzhou you ge liyuyan
N: C1161
O: China,Guangxi
S: Zhongguo Minge Xuan, S. 176]
N: Vorschlge, Glissandi. +++ Zwei 32tel Punktierungen zugunsten
N: des krzesten Notenwertes ausgelassen!
N: +++++++ Grundton muá G sein +++++++
R: Xiaodiao]
M: 2/4
L: 1/16
K: G
B2B2B2AB2 | G2GAB2AB | dBA2A4- | AGFEG2z2
B2A2A2E2 | G2EDG4 | A2AGE2D2 | E4D4
B2G2B2B2 | B2ABG3A | dBA2A4- | AGEDG2z2
B2B2A2E2 | G3EG4 | A3GE2D2 | D4D4

